X:1
T:Caprice No. 14
T:Caprice No. 14
T:Op. 20
T:Luigi Legnani (1790 - 1877)
C:Luigi Legnani
%%score ( 1 2 )
L:1/8
Q:1/4=50
M:6/8
K:Ab
V:1 treble-8 nm="Classical Guitar" snm="Guit."
V:2 treble-8 
V:1
"^Largo assai"!p!"^I" [CEA]2 [CEA] !>![EAc]2 [CEA] |!sfz! G2!p! (G/4A/4)B/4c/4 d2 z | %2
"^II" [D_FB]2 [DFB] !>![FBd]2 [DFB] |"^I" A2 (A/4B/4)c/4d/4 e2 z |"^IV" [df][df][df] [fa][eg][df] | %5
"^III" !>![=B=d]2 z"^IV" [ce]2 z | [df][df][df] [fa][eg][df] | !>![=B=d]2 z [ce]2 z | %8
!ff! [_C_FA_c_f]/>f/[Acf]/>f/[Acf]/>f/ [Acf]/>f/[Acf]/>f/[Acf]/>f/ | %9
!p!"^III" [GBe] z3/4 g/<b/g/4 e2 z | %10
!ff! [_C_FA_c_f]/>f/[Acf]/>f/[Acf]/>f/ [Acf]/>f/[Acf]/>f/[Acf]/>f/ |!p! [GBe] z3/4 g/<b/g/4 e2 z | %12
!pp!"^VIII" z2 z/4 =a/4b/4g/4 z2 z/4 a/4b/4g/4 | _a2 z/4 =d'/4e'/4c'/4 _a2 z/4 d'/4e'/4c'/4 | %14
 b2 z/4 =a/4b/4g/4 z2 z/4 a/4b/4g/4 |"^IV" [ea] z z !>![df] z/ [fa]/[eg]/[df]/ | %16
 [ce]2 z !>![df] z/ [fa]/[eg]/[df]/ | [ce] z/ e/e/e/ [de]/!>!_f/[de]/!>!b/[de]/!>!=f/ | %18
 [ce]/!>!_f/[ce]/!>!a/[ce]/!>!=f/ [de]/!>!_f/[de]/!>!b/[de]/!>!=f/ | %19
 [ce] z e/4a/4c'/4e'/4 e'/ z/ d'/ z/ c'/ z/ | [dfb]/[cea]/ z e/4a/4c'/4e'/4 e'/ z/ d'/ z/ c'/ z/ | %21
 [dfb]/[cea]/ z z!p! [Bd][Bd][Bd] | [Ac]2 z [A_cf][Acf][Acf] | [Ace]2 z"^III" [GBeg]2 z | %24
 [cea]2 z [Adf]2 z | !>![Ace]2 z !>![GBd]2 z | !>![Ac]2 z !>![FAd]2 z | !>![EAc]2 z !>![D_FG]2 z | %28
 [CEA]2 z"^IV" [EAcea]2 z | [CEA]6 |] %30
V:2
 A,A,A, !>!A,A,A, | [A,D_F]2 z z3 | A,A,A, !>!A,A,A, | [A,CE]2 z z3 | %4
 A,/A/A,/A/A,/A/ A,/A/A,/A/A,/A/ | !>!A,/A/A,/A/A,/A/ A,/A/A,/A/A,/A/ | %6
 A,/A/A,/A/A,/A/ A,/A/A,/A/A,/A/ | !>!A,/A/A,/A/A,/A/ A,2 z | _F,A,_C _FE=D | E2 z z3 | %10
 _F,A,_C _FE=D | E2 z z3 | [de]/[de]/[de]/[de]/[de]/[de]/ [de]/[de]/[de]/[de]/[de]/[de]/ | %13
 [ce]/[ce]/[ce]/[ce]/[ce]/[ce]/ [ce]/[ce]/[ce]/[ce]/[ce]/[ce]/ | %14
 [de]/[de]/[de]/[de]/[de]/[de]/ [de]/[de]/[de]/[de]/[de]/[de]/ | %15
 c/A/A,/A/A,/A/ !>!A,/A/A,/A/A,/A/ | A,/A/A,/A/A,/A/ !>!A,/A/A,/A/A,/A/ | A,2 z GGG | AAA GGG | %19
 A z/!f! A/4c/4 z z/ [fad']/ z/ [egc']/ z/ [dfb]/ | z A,/A/4c/4 z z/ [fad']/ z/ [egc']/ z/ [dfb]/ | %21
 z A, z EE=E | F2 z =DDD | E2 z E2 z | A,A,A, A,A,A, | A,A,A, A,A,A, | A,A,A, A,A,A, | %27
 A,A,A, A,A,A, | A,2 z A,2 z | A,6 |] %30

